public/icon/24/vector-square.svg

<svg width="24" height="24" viewBox="0 0 24 24" fill="none" xmlns="http://www.w3.org/2000/svg">
<path d="M5.99952 19C5.44723 19 5 18.5523 5 18V6C5 5.44772 5.44772 5 6 5C10 5 14 4.99998 18 5C18.5523 5 19 5.44771 19 6V18C19 18.5523 18.5585 19 18.0062 19C15.4558 19 8.69099 19 5.99952 19Z" fill="white" stroke="#092E24" stroke-width="2" stroke-miterlimit="10" stroke-linecap="round" stroke-linejoin="round"/>
<path d="M7 3H3V7H7V3Z" fill="white" stroke="#092E24" stroke-width="2" stroke-miterlimit="10" stroke-linecap="round" stroke-linejoin="round"/>
<path d="M7 17H3V21H7V17Z" fill="white" stroke="#092E24" stroke-width="2" stroke-miterlimit="10" stroke-linecap="round" stroke-linejoin="round"/>
<path d="M21 3H17V7H21V3Z" fill="white" stroke="#092E24" stroke-width="2" stroke-miterlimit="10" stroke-linecap="round" stroke-linejoin="round"/>
<path d="M21 17H17V21H21V17Z" fill="white" stroke="#092E24" stroke-width="2" stroke-miterlimit="10" stroke-linecap="round" stroke-linejoin="round"/>
</svg>

<svg width="24" height="24" viewBox="0 0 24 24">
  <g stroke-linecap="round" stroke-linejoin="round" stroke-miterlimit="10" stroke-width="2" class="vector-square">
    <path d="M6 19a1 1 0 0 1-1-1V6a1 1 0 0 1 1-1h12a1 1 0 0 1 1 1v12c0 .552-.442 1-.994 1H6Z" class="fill-white stroke-current stroke-2 sl-r"/>
    <path d="M7 3H3v4h4V3Z" class="fill-white stroke-current stroke-2 sl-r"/>
    <path d="M7 17H3v4h4v-4Z" class="fill-white stroke-current stroke-2 sl-r"/>
    <path d="M21 3h-4v4h4V3Z" class="fill-white stroke-current stroke-2 sl-r"/>
    <path d="M21 17h-4v4h4v-4Z" class="fill-white stroke-current stroke-2 sl-r"/>
  </g>
</svg>
